assets/icons/instagram.svg

<?xml version="1.0" encoding="UTF-8"?>
<svg width="31px" height="31px" viewBox="0 0 31 31" version="1.1" xmlns="http://www.w3.org/2000/svg" xmlns:xlink="http://www.w3.org/1999/xlink">
    <!-- Generator: Sketch 59.1 (86144) - https://sketch.com -->
    <title>instagram</title>
    <desc>Created with Sketch.</desc>
    <defs>
        <path d="M17.5068359,9.63867184 C13.1591797,9.63867184 9.65234372,13.1455078 9.65234372,17.4931641 C9.65234372,21.8408203 13.1591797,25.3476563 17.5068359,25.3476563 C21.8544922,25.3476563 25.3613282,21.8408203 25.3613282,17.4931641 C25.3613282,13.1455078 21.8544922,9.63867184 17.5068359,9.63867184 Z M17.5068359,22.5996094 C14.6972656,22.5996094 12.4003906,20.3095703 12.4003906,17.4931641 C12.4003906,14.6767578 14.6904297,12.3867187 17.5068359,12.3867187 C20.3232422,12.3867187 22.6132813,14.6767578 22.6132813,17.4931641 C22.6132813,20.3095703 20.3164063,22.5996094 17.5068359,22.5996094 L17.5068359,22.5996094 Z M27.5146485,9.31738278 C27.5146485,10.3359375 26.694336,11.149414 25.6826172,11.149414 C24.6640625,11.149414 23.850586,10.3291015 23.850586,9.31738278 C23.850586,8.30566402 24.6708985,7.48535152 25.6826172,7.48535152 C26.694336,7.48535152 27.5146485,8.30566402 27.5146485,9.31738278 Z M32.7167969,11.1767578 C32.600586,8.72265621 32.0400391,6.54882808 30.2421876,4.75781245 C28.4511719,2.96679681 26.2773438,2.40624994 23.8232422,2.28320306 C21.2939453,2.13964837 13.7128906,2.13964837 11.1835937,2.28320306 C8.73632809,2.399414 6.56249995,2.95996088 4.76464838,4.75097651 C2.96679681,6.54199214 2.41308587,8.71582028 2.290039,11.1699218 C2.14648431,13.6992187 2.14648431,21.2802735 2.290039,23.8095703 C2.40624994,26.2636719 2.96679681,28.4375 4.76464838,30.2285157 C6.56249995,32.0195313 8.72949215,32.5800782 11.1835937,32.7031251 C13.7128906,32.8466798 21.2939453,32.8466798 23.8232422,32.7031251 C26.2773438,32.5869141 28.4511719,32.0263672 30.2421876,30.2285157 C32.0332032,28.4375 32.5937501,26.2636719 32.7167969,23.8095703 C32.8603516,21.2802735 32.8603516,13.7060547 32.7167969,11.1767578 Z M29.4492188,26.5234375 C28.9160157,27.8632813 27.8837891,28.8955079 26.5371094,29.4355469 C24.5205078,30.2353516 19.7353516,30.0507813 17.5068359,30.0507813 C15.2783203,30.0507813 10.4863281,30.2285157 8.47656246,29.4355469 C7.13671871,28.9023438 6.10449214,27.8701172 5.56445308,26.5234375 C4.76464838,24.506836 4.9492187,19.7216797 4.9492187,17.4931641 C4.9492187,15.2646484 4.77148432,10.4726562 5.56445308,8.46289059 C6.0976562,7.12304683 7.12988277,6.09082026 8.47656246,5.5507812 C10.493164,4.75097651 15.2783203,4.93554682 17.5068359,4.93554682 C19.7353516,4.93554682 24.5273438,4.75781245 26.5371094,5.5507812 C27.8769532,6.08398433 28.9091797,7.11621089 29.4492188,8.46289059 C30.2490235,10.4794922 30.0644532,15.2646484 30.0644532,17.4931641 C30.0644532,19.7216797 30.2490235,24.5136719 29.4492188,26.5234375 Z" id="path-1"></path>
    </defs>
    <g id="Page-1" stroke="none" stroke-width="1" fill="none" fill-rule="evenodd">
        <g id="Desktop-HD-1" transform="translate(-1108.000000, -6486.000000)">
            <g id="footer" transform="translate(-0.000000, 6418.000000)">
                <g id="social_media" transform="translate(1106.000000, 66.000000)">
                    <g id="instagram">
                        <mask id="mask-2" fill="white">
                            <use xlink:href="#path-1"></use>
                        </mask>
                        <g fill-rule="nonzero"></g>
                        <g id="color/white" mask="url(#mask-2)" fill="#FFFFFF" fill-rule="evenodd">
                            <rect id="Rectangle" x="0" y="0" width="35" height="35"></rect>
                        </g>
                    </g>
                </g>
            </g>
        </g>
    </g>
</svg>

<svg xmlns="http://www.w3.org/2000/svg" xmlns:xlink="http://www.w3.org/1999/xlink" width="31" height="31" viewBox="0 0 31 31"><defs><path id="a" d="M17.507 9.639a7.842 7.842 0 0 0-7.855 7.854 7.842 7.842 0 0 0 7.855 7.855 7.842 7.842 0 0 0 7.854-7.855 7.842 7.842 0 0 0-7.854-7.854zm0 12.96a5.116 5.116 0 0 1-5.107-5.106 5.111 5.111 0 0 1 5.107-5.106 5.111 5.111 0 0 1 5.106 5.106 5.116 5.116 0 0 1-5.106 5.107zM27.515 9.318c0 1.019-.82 1.832-1.832 1.832a1.832 1.832 0 1 1 1.832-1.832zm5.202 1.86c-.116-2.454-.677-4.628-2.475-6.42-1.79-1.79-3.965-2.35-6.419-2.474-2.53-.143-10.11-.143-12.64 0-2.447.116-4.62.677-6.418 2.468S2.413 8.716 2.29 11.17c-.144 2.53-.144 10.11 0 12.64.116 2.454.677 4.628 2.475 6.419 1.797 1.79 3.964 2.351 6.419 2.474 2.529.144 10.11.144 12.64 0 2.453-.116 4.627-.677 6.418-2.474 1.791-1.791 2.352-3.965 2.475-6.42.143-2.529.143-10.103 0-12.632zm-3.268 15.346a5.17 5.17 0 0 1-2.912 2.913c-2.016.8-6.802.615-9.03.615-2.229 0-7.02.178-9.03-.615a5.17 5.17 0 0 1-2.913-2.913c-.8-2.016-.615-6.801-.615-9.03 0-2.228-.178-7.02.615-9.03A5.17 5.17 0 0 1 8.477 5.55c2.016-.8 6.801-.615 9.03-.615 2.228 0 7.02-.178 9.03.615a5.17 5.17 0 0 1 2.912 2.912c.8 2.016.615 6.802.615 9.03 0 2.229.185 7.02-.615 9.03z"/></defs><g fill="none" fill-rule="evenodd" transform="translate(-2 -2)"><mask id="b" fill="#fff"><use xlink:href="#a"/></mask><g fill="#FFF" mask="url(#b)"><path d="M0 0h35v35H0z"/></g></g></svg>
